Faba/24x24/actions/application-exit.svg

<?xml version="1.0" encoding="UTF-8" standalone="no"?>
<!-- Created with Inkscape (http://www.inkscape.org/) -->

<svg
   xmlns:dc="http://purl.org/dc/elements/1.1/"
   xmlns:cc="http://creativecommons.org/ns#"
   xmlns:rdf="http://www.w3.org/1999/02/22-rdf-syntax-ns#"
   xmlns:svg="http://www.w3.org/2000/svg"
   xmlns="http://www.w3.org/2000/svg"
   xmlns:sodipodi="http://sodipodi.sourceforge.net/DTD/sodipodi-0.dtd"
   xmlns:inkscape="http://www.inkscape.org/namespaces/inkscape"
   width="24"
   height="24"
   id="svg3495"
   version="1.1"
   inkscape:version="0.48.4 r9939"
   sodipodi:docname="document-import.svg">
  <defs
     id="defs3497" />
  <sodipodi:namedview
     id="base"
     pagecolor="#ffffff"
     bordercolor="#666666"
     borderopacity="1.0"
     inkscape:pageopacity="0.0"
     inkscape:pageshadow="2"
     inkscape:zoom="1"
     inkscape:cx="9.8057597"
     inkscape:cy="21.313017"
     inkscape:current-layer="layer1"
     showgrid="false"
     inkscape:grid-bbox="true"
     inkscape:document-units="px"
     inkscape:window-width="1364"
     inkscape:window-height="701"
     inkscape:window-x="0"
     inkscape:window-y="27"
     inkscape:window-maximized="1"
     inkscape:snap-bbox="true"
     inkscape:bbox-paths="true"
     inkscape:bbox-nodes="true"
     inkscape:snap-bbox-edge-midpoints="false">
    <inkscape:grid
       type="xygrid"
       id="grid3512"
       empspacing="4"
       visible="true"
       enabled="true"
       snapvisiblegridlinesonly="true"
       dotted="false" />
  </sodipodi:namedview>
  <metadata
     id="metadata3500">
    <rdf:RDF>
      <cc:Work
         rdf:about="">
        <dc:format>image/svg+xml</dc:format>
        <dc:type
           rdf:resource="http://purl.org/dc/dcmitype/StillImage" />
        <dc:title></dc:title>
      </cc:Work>
    </rdf:RDF>
  </metadata>
  <g
     id="layer1"
     inkscape:label="Layer 1"
     inkscape:groupmode="layer"
     transform="translate(1,-25)">
    <g
       id="g3779">
      <g
         transform="matrix(0.83333333,0,0,-0.83333333,16.333333,45.333334)"
         id="g4829">
        <path
           id="path4831"
           transform="matrix(1.2,0,0,-1.2,-19.6,23.200001)"
           d="M 3 1 L 3 21 L 16.34375 21 L 18 21 L 18 17 L 16 17 L 16 19 L 5 19 L 11 16 L 11 15.65625 L 7.09375 11.71875 L 6.375 11 L 7.09375 10.28125 L 11 6.375 L 11 3 L 16 3 L 16 5 L 18 5 L 18 1 L 3 1 z "
           style="fill:#555555;fill-opacity:1;fill-rule:nonzero;stroke:none" />
      </g>
      <g
         transform="matrix(0.75564371,0,0,-0.75564371,16.990653,29)"
         id="g4763">
        <path
           sodipodi:nodetypes="cccccccccc"
           inkscape:connector-curvature="0"
           id="path4765"
           style="fill:#555555;fill-opacity:1;fill-rule:nonzero;stroke:none"
           d="m -4.2376739,-2.647453 1.833,-1.834 -4.8103843,-4.8101511 11.1975524,0.027979 0,-2.6467499 -11.1975523,-0.02797 4.8103843,-4.809651 -1.833,-1.833 -7.9413842,7.993996 z" />
      </g>
    </g>
    <g
       id="g3785"
       style="opacity:0.1;fill:#ffffff;fill-opacity:1"
       transform="translate(0,-0.99999983)">
      <g
         id="g3787"
         transform="matrix(0.83333333,0,0,-0.83333333,16.333333,45.333334)"
         style="fill:#ffffff;fill-opacity:1">
        <path
           style="fill:#ffffff;fill-opacity:1;fill-rule:nonzero;stroke:none"
           d="M 3,1 3,21 16.34375,21 18,21 l 0,-4 -2,0 0,2 -11,0 6,-3 0,-0.34375 L 7.09375,11.71875 6.375,11 7.09375,10.28125 11,6.375 11,3 16,3 16,5 18,5 18,1 3,1 z"
           transform="matrix(1.2,0,0,-1.2,-19.6,23.200001)"
           id="path3789"
           inkscape:connector-curvature="0" />
      </g>
      <g
         id="g3791"
         transform="matrix(0.75564371,0,0,-0.75564371,16.990653,29)"
         style="fill:#ffffff;fill-opacity:1">
        <path
           d="m -4.2376739,-2.647453 1.833,-1.834 -4.8103843,-4.8101511 11.1975524,0.027979 0,-2.6467499 -11.1975523,-0.02797 4.8103843,-4.809651 -1.833,-1.833 -7.9413842,7.993996 z"
           style="fill:#ffffff;fill-opacity:1;fill-rule:nonzero;stroke:none"
           id="path3793"
           inkscape:connector-curvature="0"
           sodipodi:nodetypes="cccccccccc" />
      </g>
    </g>
  </g>
</svg>

<svg xmlns="http://www.w3.org/2000/svg" viewBox="0 0 24 24" xmlns:xlink="http://www.w3.org/1999/xlink"><g transform="translate(1-25)"><g fill="#555"><path transform="translate(0 26)" d="m3 1v20h13.344 1.656v-4h-2v2h-11l6-3v-.344l-3.906-3.938-.719-.719.719-.719 3.906-3.906v-3.375h5v2h2v-4h-15" id="0"/><path d="m-4.238-2.647l1.833-1.834-4.81-4.81 11.198.028v-2.647l-11.198-.028 4.81-4.81-1.833-1.833-7.941 7.994z" transform="matrix(.75564 0 0-.75564 16.991 29)" id="1"/></g><g transform="translate(0-1)" opacity=".1" fill="#fff"><use xlink:href="#0"/><use xlink:href="#1"/></g></g></svg>
